X:1
T:The Unclouded Day
T:The Unclouded Day
T:Josiah Kelly Alwood
T:Josiah Kelly Alwood, 1879
T:Public Domain Courtesy of the Cyber Hymnal™
T:Public Domain Courtesy of the Cyber Hymnal™
C:Josiah Kelly Alwood
Z:Public Domain
Z:Courtesy of the Cyber Hymnal™
%%score ( 1 2 ) ( 3 4 )
L:1/8
Q:1/4=105
M:4/4
K:G
V:1 treble 
V:2 treble 
V:3 bass 
V:4 bass 
V:1
 [B,D]>[B,D] | [DG]>[DG] [DG]>[DG] [DG]2 [DB]>[DA] | [EG]2 [CE]2 [B,D]2 [B,D]>[B,D] | %3
w: 1.~O they|tell me of a home far be-|yond the skies, O they|
w: 2.~O they|tell me of a home where my|friends have gone, O they|
w: 3.~O they|tell me of a king in His|beau- ty there, And they|
w: 4.~O they|tell me that He smiles on His|child- ren there, And His|
 [DG]>[DG] [DG]>[DG] ([DG]>[DG]) [GB]>[GB] | [Fd]6 D>D | [DG]>[DG] [DG]>[DG] [DG]2 [DB]>[DA] | %6
w: tell me of a home * far a-|way; O they|tell me of a home where no|
w: tell me of that land * far a-|way, Where the|tr- ee o- f life in e-|
w: tell me that mine eyes * shall be-|hold Where He|sits on the throne that is whit-|
w: smile drives their sor- rows * all a-|way; And they|tell me that no tears ev- er|
 [EG]2 [CE]2 [B,D]2 [Gd]>[Ge] | [Gd]>[GB] G>[GA] [GB]2 [FA]>[FA] | G6 ||"^Refrain" [Gd]3 [Ge] | %10
w: storm clouds rise, O they|tell me of an un- cloud- ed|day.||
w: ter- nal bloom Sheds its|frag- rance through the un- cloud- ed|day.|O the|
w: er than snow, In the|ci- ty that is ma- de of|gold.||
w: come a- gain In that|love- ly land of un- cloud- ed|day.||
 [Gd]2 [GB]2 G2 [DB]2 | G4 [Gd]3 [Ge] | [Gd]2 [GB]>A [DG]2 [GB]>[GB] | [FA]4 D>D | %14
w: ||||
w: land of cloud- less|day, O the|land of an un- cloud- ed|day, O they|
w: ||||
w: ||||
 [DG]>[DG] [DG]>[DG] [DG]2 [DB]>[DA] | [EG]2 [CE]2 [B,D]2 [Gd]>[Ge] | %16
w: ||
w: tell me of a home where no|storm clouds rise, O they|
w: ||
w: ||
 [Gd]>[GB] G>[GA] [GB]2 [FA]>[FA] | G6 |] %18
w: ||
w: tell me of an un- cloud- ed|day.|
w: ||
w: ||
V:2
 x2 | x8 | x8 | x8 | x8 | x8 | x8 | x8 | G6 || x4 | x4 G2 x2 | G4 x4 | x7/2 G/ x4 | x4 D>D | x8 | %15
 x8 | x8 | G6 |] %18
V:3
 G,>G, | [G,B,]>[G,B,] [G,B,]>[G,B,] [G,B,]2 G,>G, | [C,G,]2 [E,G,]2 G,2 G,>G, | %3
 [G,B,]>[G,B,] [G,B,]>[G,B,] ([G,B,]>[G,B,]) [E,B,]>[E,G,] | [D,A,]6 [D,C]>[D,C] | %5
 [G,,B,]>[G,,B,] [G,,B,]>[G,,B,] [G,,B,]2 [G,,G,]>[G,,G,] | [C,G,]2 [E,G,]2 G,2 [G,B,]>[G,C] | %7
 [G,B,]>G, [G,B,]>[G,C] [D,D]2 [D,C]>[D,C] | [G,,B,]6 || [G,B,]3 [G,C] | %10
 [G,B,]2 [G,D]2 [G,B,]2 G,2 | [G,B,]4 [G,B,]3 [G,C] | [G,B,]2 [G,D]>[A,C] [G,B,]2 [G,D]>[G,D] | %13
 [D,D]4 [D,C]>[D,C] | [G,,B,]>[G,,B,] [G,,B,]>[G,,B,] [G,,B,]2 [G,,G,]>[G,,G,] | %15
 [C,G,]2 [E,G,]2 G,2 [G,B,]>[G,C] | [G,B,]>G, [G,B,]>[G,C] [D,D]2 [D,C]>[D,C] | [G,,B,]6 |] %18
V:4
 G,>G, | x6 G,>G, | x4 G,2 G,>G, | x8 | x8 | x8 | x8 | x8 | x6 || x4 | x6 G,2 | x8 | x8 | x6 | x8 | %15
 x8 | x8 | x6 |] %18

